X: 29118
T: Nellie Your Favour I'm Afraid I'll Not Gain
R: hornpipe
M: 4/4
K: Ddorian
DC|:A,DDC D2EC|DEGA cedc|AcGA EGDE|CB,CD E2DC|
A,DDC D2EC|DEGA cedc|A2GA EAGE|1 D2DC D2DC:|2 D2DC D3E||
|:GEGA c2cd|cAGA cedc|AcGA EGDE|CB,CD E2DC|
A,DDC D2EC|DEGA cedc|A2GA EAGE|1 D2DC D3E:|2 D2DC D2DC||

